X: 2
P: Boda Gammalg\aarden (Bl\aasenberg snoa)
M: g\aangl\aat
Z: John Chambers <jc@trillian.mit.edu>
M: 2/4
L: 1/16
K: A
|: "A"e2e2 c2ec | A2cA E4 | E2c2 B2A2 | "Bm"G4 F4 | "E7"d2d2 B2dB | G2BG E4 | E2EF E2D2 | "A"C2E2 A2c2 |
|  "A"e2e2 c2ec | A2cA E4 | E2c2 B2A2 | "Bm"G4 F4 | "E7"d2d2 B3d | "A"c2c2 A3c | "E7"B2BG EGBG | "A"A2A2 "fine"A4 :| [K:D]
|: "D"f3e d2B2 | A2AF D4 | DFAF DFAF | "Em"G2E2 E4 | g3f e2d2 | "A7"d2c2 c3d | c2B2 B3c | "D"B2A2 A4 |
|  "D"f3e d2B2 | A2AF D4 | D2F2 A2d2 | "G"B2G2 G4 | "A7"g2e2 e2eg | "D"f2d2 d2df | "A7"e2ec Acec | "D"d2d2 d4 :|
